X:24
T:Over the Waterfall
M:2/4
L:1/16
K:D
|:de|"D"f2af "G"gfe2|"D"d2B2 A2de|"D"f2af "G"gfe2|"D"d4 d3e|"D"f2af "G"gfe2|"D"d2B2 A3B|"C"=c2c "D7"B2A2|"G"G6:|!
|:z2|"D"A4 "G"B4|"D"ABAG F2G2|A2d2 "A7"cdec|"D"d2A2 F2G2|"D"A4 "G"B4|"D"ABAG F2G2|"D"A2A2 "A7"GFE2|"D"D6:|
